Obsidian-SemiLight/actions/16s/junction.svg

<svg viewBox="0 0 16 16" xmlns="http://www.w3.org/2000/svg"><path d="m3.5 2a1.4999979 1.5 0 0 0 -1.5 1.5 1.4999979 1.5 0 0 0 1 1.4121094v6.1757816a1.4999979 1.5 0 0 0 -1 1.412109 1.4999979 1.5 0 0 0 1.5 1.5 1.4999979 1.5 0 0 0 1.5-1.5 1.4999979 1.5 0 0 0 -1-1.412109v-1.087891a1 1 0 0 1 1-1h6a1 1 0 0 1 1 1v1.087891a1.4999979 1.5 0 0 0 -1 1.412109 1.4999979 1.5 0 0 0 1.5 1.5 1.4999979 1.5 0 0 0 1.5-1.5 1.4999979 1.5 0 0 0 -1-1.412109v-1.087891-5.0878906a1.4999979 1.5 0 0 0 1-1.4121094 1.4999979 1.5 0 0 0 -1.5-1.5 1.4999979 1.5 0 0 0 -1.5 1.5 1.4999979 1.5 0 0 0 1 1.4121094v2.0878906a1 1 0 0 1 -1 1h-6a1 1 0 0 1 -1-1v-2.0878906a1.4999979 1.5 0 0 0 1-1.4121094 1.4999979 1.5 0 0 0 -1.5-1.5zm0 1a.5.5 0 0 1 .5.5.5.5 0 0 1 -.5.5.5.5 0 0 1 -.5-.5.5.5 0 0 1 .5-.5zm9 0a.5.5 0 0 1 .5.5.5.5 0 0 1 -.5.5.5.5 0 0 1 -.5-.5.5.5 0 0 1 .5-.5zm-9 9a.5.5 0 0 1 .5.5.5.5 0 0 1 -.5.5.5.5 0 0 1 -.5-.5.5.5 0 0 1 .5-.5zm9 0a.5.5 0 0 1 .5.5.5.5 0 0 1 -.5.5.5.5 0 0 1 -.5-.5.5.5 0 0 1 .5-.5z" fill="#4d4d4d"/></svg>

<svg xmlns="http://www.w3.org/2000/svg" viewBox="0 0 16 16">
  <defs id="defs3051">
    <style type="text/css" id="current-color-scheme">
      .ColorScheme-Text {
        color:#4d4d4d;
      }
      </style>
  </defs>
 <path style="fill:currentColor;fill-opacity:1;stroke:none" 
     d="M 3.5 2 A 1.4999979 1.5 0 0 0 2 3.5 A 1.4999979 1.5 0 0 0 3 4.9121094 L 3 11.087891 A 1.4999979 1.5 0 0 0 2 12.5 A 1.4999979 1.5 0 0 0 3.5 14 A 1.4999979 1.5 0 0 0 5 12.5 A 1.4999979 1.5 0 0 0 4 11.087891 L 4 10 A 1 1 0 0 1 5 9 L 11 9 A 1 1 0 0 1 12 10 L 12 11.087891 A 1.4999979 1.5 0 0 0 11 12.5 A 1.4999979 1.5 0 0 0 12.5 14 A 1.4999979 1.5 0 0 0 14 12.5 A 1.4999979 1.5 0 0 0 13 11.087891 L 13 10 L 13 4.9121094 A 1.4999979 1.5 0 0 0 14 3.5 A 1.4999979 1.5 0 0 0 12.5 2 A 1.4999979 1.5 0 0 0 11 3.5 A 1.4999979 1.5 0 0 0 12 4.9121094 L 12 7 A 1 1 0 0 1 11 8 L 5 8 A 1 1 0 0 1 4 7 L 4 4.9121094 A 1.4999979 1.5 0 0 0 5 3.5 A 1.4999979 1.5 0 0 0 3.5 2 z M 3.5 3 A 0.5 0.5 0 0 1 4 3.5 A 0.5 0.5 0 0 1 3.5 4 A 0.5 0.5 0 0 1 3 3.5 A 0.5 0.5 0 0 1 3.5 3 z M 12.5 3 A 0.5 0.5 0 0 1 13 3.5 A 0.5 0.5 0 0 1 12.5 4 A 0.5 0.5 0 0 1 12 3.5 A 0.5 0.5 0 0 1 12.5 3 z M 3.5 12 A 0.5 0.5 0 0 1 4 12.5 A 0.5 0.5 0 0 1 3.5 13 A 0.5 0.5 0 0 1 3 12.5 A 0.5 0.5 0 0 1 3.5 12 z M 12.5 12 A 0.5 0.5 0 0 1 13 12.5 A 0.5 0.5 0 0 1 12.5 13 A 0.5 0.5 0 0 1 12 12.5 A 0.5 0.5 0 0 1 12.5 12 z "
     class="ColorScheme-Text"
     />
</svg>
